X:1
T: Lady Betty Cochrane
C:
R:Reel
Q: 232
K:C
M:4/4
L:1/8
|:e|c2 GE CE GE|FD d^c dA AB|cG FE Gc ea|gc fd ec ce|
c2 GE CE GE|FD d^c dA AB|cG FE Gc ea|gc fd ec ce|
c1/2c1/2c ec gc ec|Gc ec ad de|c1/2c1/2c ec gc ec|Gc B1/2c1/2d ec ce|
c2 e1/2d1/2c ec e1/2d1/2c|Gc e1/2d1/2c ad de|cd Ac GA ca|gc fd ec c:|
